components/Icon/icons/react.svg

<svg width="100%" height="100%" viewBox="0 0 57 50" fill="currentColor" xmlns="http://www.w3.org/2000/svg">
<g clip-path="url(#clip0)">
<path d="M46.3303 16.1896C45.7306 15.9846 45.1258 15.7947 44.5165 15.6201C44.6189 15.2034 44.7131 14.7918 44.7967 14.3874C46.1698 7.74686 45.2722 2.39708 42.2062 0.635671C39.2666 -1.05293 34.4591 0.70782 29.6038 4.91769C29.1253 5.33333 28.6574 5.76095 28.2006 6.20015C27.8948 5.9081 27.5835 5.62172 27.2671 5.34115C22.1785 0.839838 17.078 -1.05731 14.0153 0.709136C11.0783 2.403 10.2087 7.43216 11.4448 13.7256C11.5678 14.3489 11.7067 14.969 11.8613 15.5852C11.1393 15.7896 10.4427 16.0072 9.77593 16.2387C3.80995 18.3111 0 21.5587 0 24.9273C0 28.4065 4.09016 31.8962 10.304 34.0122C10.8077 34.1831 11.3157 34.3414 11.8274 34.487C11.6612 35.1507 11.5137 35.819 11.385 36.4909C10.2065 42.6752 11.1268 47.5855 14.0558 49.2686C17.0811 51.0067 22.1587 49.2203 27.1026 44.9144C27.5035 44.5643 27.8956 44.2044 28.2785 43.8348C28.7732 44.3104 29.2811 44.7721 29.8017 45.2195C34.5909 49.3252 39.3207 50.983 42.2469 49.2953C45.2693 47.5521 46.2517 42.2771 44.9764 35.8594C44.8759 35.3566 44.7632 34.8563 44.6385 34.3589C44.9951 34.2537 45.345 34.1453 45.6862 34.0326C52.1461 31.9004 56.3492 28.453 56.3492 24.9273C56.3492 21.5464 52.4162 18.2769 46.3303 16.1896V16.1896ZM44.9292 31.7563C44.6211 31.8578 44.305 31.9559 43.9828 32.0512C43.2696 29.8019 42.3072 27.4102 41.1294 24.939C42.2533 22.5267 43.1787 20.1655 43.8718 17.9308C44.4483 18.0971 45.0076 18.2723 45.5469 18.4572C50.7614 20.2458 53.942 22.8898 53.942 24.9273C53.942 27.0975 50.5069 29.9148 44.9292 31.7563V31.7563ZM42.615 36.3252C43.1789 39.1629 43.2592 41.7287 42.8857 43.7346C42.5503 45.537 41.8754 46.7385 41.0407 47.2199C39.265 48.244 35.4674 46.9129 31.3718 43.4015C30.8876 42.9855 30.4151 42.5563 29.9549 42.1142C31.5428 40.3841 33.1296 38.373 34.6783 36.1392C37.4024 35.8984 39.976 35.5045 42.3099 34.967C42.4248 35.4291 42.5269 35.8822 42.615 36.3252V36.3252ZM19.2107 47.0429C17.4757 47.6532 16.0939 47.6708 15.2585 47.1909C13.4811 46.1697 12.7422 42.2269 13.7501 36.9383C13.8699 36.3134 14.0071 35.6919 14.1615 35.0745C16.4696 35.5833 19.0245 35.9491 21.755 36.1697C23.3143 38.3554 24.9468 40.3644 26.5922 42.1236C26.2425 42.4607 25.8846 42.7892 25.5187 43.1087C23.3323 45.0127 21.1415 46.3635 19.2107 47.0429V47.0429ZM11.0827 31.7429C8.33506 30.8072 6.0659 29.5912 4.51058 28.2642C3.11285 27.0719 2.40739 25.8879 2.40739 24.9273C2.40739 22.883 5.46631 20.2756 10.5683 18.5034C11.1875 18.2885 11.8355 18.0857 12.508 17.8953C13.2132 20.1804 14.1381 22.5697 15.2543 24.9857C14.1236 27.4374 13.1855 29.8648 12.4734 32.1769C12.0064 32.0436 11.5427 31.8989 11.0827 31.7429V31.7429ZM13.8073 13.2648C12.7483 7.87295 13.4516 3.80563 15.2215 2.78479C17.1066 1.69751 21.2751 3.24773 25.6688 7.13458C25.9553 7.38861 26.2372 7.64779 26.5143 7.91199C24.8771 9.66352 23.2595 11.6576 21.714 13.8304C19.0639 14.0751 16.527 14.4681 14.1947 14.9947C14.051 14.4215 13.9218 13.8447 13.8073 13.2651V13.2648ZM38.1139 19.2447C37.563 18.2966 36.9916 17.3605 36.4003 16.437C38.1982 16.6635 39.9208 16.9642 41.5384 17.3317C41.0528 18.8826 40.4475 20.5039 39.735 22.1662C39.2142 21.1817 38.6737 20.2076 38.1139 19.2447V19.2447ZM28.2017 9.62602C29.3119 10.8245 30.4239 12.1624 31.5177 13.6142C29.2989 13.5098 27.0765 13.5093 24.8577 13.6129C25.9526 12.1745 27.074 10.8383 28.2017 9.62602ZM18.2259 19.2611C17.673 20.2163 17.1426 21.1843 16.6351 22.1642C15.9343 20.5078 15.3345 18.8791 14.8447 17.3063C16.4524 16.948 18.1669 16.655 19.9533 16.4326C19.3554 17.3618 18.7794 18.3048 18.2259 19.2609V19.2611ZM20.0046 33.5927C18.159 33.3874 16.4187 33.1096 14.8115 32.7609C15.3089 31.16 15.922 29.4966 16.638 27.8048C17.1475 28.7854 17.6801 29.7539 18.2354 30.7096C18.8063 31.692 19.3976 32.6543 20.0046 33.5927ZM28.2682 40.3975C27.1271 39.1712 25.9891 37.8144 24.8777 36.3552C25.9567 36.3973 27.0566 36.4188 28.1746 36.4188C29.3232 36.4188 30.4585 36.3931 31.576 36.3436C30.4788 37.8291 29.3709 39.1879 28.2682 40.3975ZM39.7577 27.7184C40.5109 29.4289 41.1457 31.0835 41.6498 32.6569C40.0161 33.0284 38.2521 33.3276 36.3934 33.5497C36.989 32.609 37.5658 31.6567 38.1233 30.6931C38.6902 29.7137 39.2351 28.7219 39.7577 27.7184V27.7184ZM36.0382 29.4949C35.1846 30.9722 34.2831 32.4214 33.335 33.8403C31.6175 33.9615 29.8963 34.0217 28.1746 34.0208C26.421 34.0208 24.7153 33.9664 23.0728 33.8602C22.0999 32.4446 21.1812 30.9929 20.3185 29.508H20.3187C19.4601 28.0311 18.6581 26.5222 17.9144 24.9846C18.6562 23.4466 19.4558 21.937 20.3115 20.4589L20.3112 20.4591C21.1666 18.9807 22.078 17.5351 23.0435 16.1256C24.7193 15.9993 26.4377 15.9335 28.1744 15.9335H28.1746C29.9192 15.9335 31.6399 15.9999 33.3151 16.1271C34.2709 17.5345 35.1765 18.9751 36.0303 20.4462C36.8888 21.921 37.6989 23.4233 38.4594 24.9506C37.7068 26.4935 36.8992 28.0092 36.0382 29.4949V29.4949ZM41.004 2.7133C42.8908 3.79751 43.6246 8.16966 42.4391 13.9032C42.3634 14.269 42.2784 14.6416 42.186 15.0194C39.8479 14.4817 37.3093 14.0819 34.6515 13.8335C33.1032 11.6368 31.4988 9.63962 29.8882 7.91067C30.3103 7.5053 30.7424 7.11044 31.1842 6.72646C35.3444 3.11966 39.2325 1.69554 41.004 2.7133V2.7133ZM28.1746 19.9142C30.9535 19.9142 33.2064 22.1587 33.2064 24.9273C33.2064 27.696 30.9535 29.9405 28.1746 29.9405C25.3957 29.9405 23.1428 27.696 23.1428 24.9273C23.1428 22.1587 25.3957 19.9142 28.1746 19.9142V19.9142Z" fill="currentColor"/>
</g>
<defs>
<clipPath id="clip0">
<rect width="56.3492" height="50" fill="currentColor"/>
</clipPath>
</defs>
</svg>

<svg xmlns="http://www.w3.org/2000/svg" width="100%" height="100%" fill="none"
viewBox="0 0 57 50"  xmlns:v="https://vecta.io/nano"><g clip-path="url(#A)"><path d="M46.33 16.19l-1.814-.569.28-1.233c1.373-6.641.475-11.99-2.59-13.752-2.94-1.689-7.747.072-12.602 4.282-.479.416-.946.843-1.403 1.282-.306-.292-.617-.578-.934-.859C22.179.84 17.078-1.057 14.015.709c-2.937 1.694-3.807 6.723-2.57 13.016a37.38 37.38 0 0 0 .416 1.86c-.722.204-1.419.422-2.085.654C3.81 18.311 0 21.559 0 24.927c0 3.479 4.09 6.969 10.304 9.085a31.99 31.99 0 0 0 1.523.475c-.166.664-.314 1.332-.442 2.004-1.178 6.184-.258 11.095 2.671 12.778 3.025 1.738 8.103-.048 13.047-4.354.401-.35.793-.71 1.176-1.08a36.9 36.9 0 0 0 1.523 1.385c4.789 4.106 9.519 5.764 12.445 4.076 3.022-1.743 4.005-7.018 2.73-13.436a31.81 31.81 0 0 0-.338-1.501 34.19 34.19 0 0 0 1.048-.326c6.46-2.132 10.663-5.58 10.663-9.105 0-3.381-3.933-6.65-10.019-8.738h0zm-1.401 15.567c-.308.102-.624.2-.946.295-.713-2.249-1.676-4.641-2.853-7.112 1.124-2.412 2.049-4.773 2.742-7.008.577.166 1.136.341 1.675.526 5.215 1.789 8.395 4.433 8.395 6.47 0 2.17-3.435 4.988-9.013 6.829h0zm-2.314 4.569c.564 2.838.644 5.404.271 7.409-.335 1.802-1.01 3.004-1.845 3.485-1.776 1.024-5.573-.307-9.669-3.818a34.46 34.46 0 0 1-1.417-1.287c1.588-1.73 3.175-3.741 4.723-5.975 2.724-.241 5.298-.635 7.632-1.172a29.41 29.41 0 0 1 .305 1.358h0zM19.211 47.043c-1.735.61-3.117.628-3.952.148-1.777-1.021-2.516-4.964-1.508-10.253.12-.625.257-1.246.411-1.864 2.308.509 4.863.875 7.593 1.095 1.559 2.186 3.192 4.195 4.837 5.954-.35.337-.708.666-1.073.985-2.186 1.904-4.377 3.255-6.308 3.934h0zm-8.128-15.3c-2.748-.936-5.017-2.152-6.572-3.479-1.398-1.192-2.103-2.376-2.103-3.337 0-2.044 3.059-4.652 8.161-6.424.619-.215 1.267-.418 1.94-.608.705 2.285 1.63 4.674 2.746 7.09-1.131 2.452-2.069 4.879-2.781 7.191-.467-.133-.931-.278-1.391-.434h0zm2.725-18.478c-1.059-5.392-.356-9.459 1.414-10.48 1.885-1.087 6.054.463 10.447 4.35.287.254.568.513.845.777-1.637 1.752-3.255 3.746-4.8 5.918-2.65.245-5.187.638-7.519 1.164-.144-.573-.273-1.15-.387-1.73h0zm24.307 5.98c-.551-.948-1.122-1.884-1.714-2.808a53.39 53.39 0 0 1 5.138.895c-.486 1.551-1.091 3.172-1.803 4.834-.521-.985-1.061-1.959-1.621-2.921h0zm-9.912-9.619c1.11 1.198 2.222 2.536 3.316 3.988a71.12 71.12 0 0 0-6.66-.001c1.095-1.438 2.216-2.775 3.344-3.987zm-9.976 9.635c-.553.955-1.083 1.923-1.591 2.903-.701-1.656-1.301-3.285-1.79-4.858 1.608-.358 3.322-.651 5.109-.874-.598.929-1.174 1.872-1.727 2.828h0zm1.779 14.332c-1.846-.205-3.586-.483-5.193-.832a53.55 53.55 0 0 1 1.827-4.956 70.28 70.28 0 0 0 1.597 2.905c.571.982 1.162 1.945 1.769 2.883zm8.264 6.805c-1.141-1.226-2.279-2.583-3.39-4.042a84.6 84.6 0 0 0 3.297.064c1.149 0 2.284-.026 3.401-.075-1.097 1.485-2.205 2.844-3.308 4.054zm11.49-12.679c.753 1.71 1.388 3.365 1.892 4.939-1.634.371-3.398.671-5.256.893a83.64 83.64 0 0 0 1.73-2.857c.567-.979 1.112-1.971 1.634-2.975h0zm-3.719 1.777c-.854 1.477-1.755 2.926-2.703 4.345a72.77 72.77 0 0 1-5.16.181 79.21 79.21 0 0 1-5.102-.161 67.95 67.95 0 0 1-2.754-4.352h0a67.34 67.34 0 0 1-2.404-4.523 67.96 67.96 0 0 1 2.397-4.526h0a67.38 67.38 0 0 1 2.732-4.334 68.41 68.41 0 0 1 5.131-.192h0c1.745 0 3.465.066 5.14.194.956 1.407 1.861 2.848 2.715 4.319s1.669 2.977 2.429 4.504a72.13 72.13 0 0 1-2.421 4.544h0zm4.966-26.782c1.887 1.084 2.621 5.456 1.435 11.19a32.03 32.03 0 0 1-.253 1.116c-2.338-.538-4.877-.937-7.535-1.186-1.548-2.197-3.153-4.194-4.763-5.923.422-.405.854-.8 1.296-1.184 4.16-3.607 8.048-5.031 9.82-4.013h0zM28.175 19.914c2.779 0 5.032 2.244 5.032 5.013s-2.253 5.013-5.032 5.013-5.032-2.244-5.032-5.013 2.253-5.013 5.032-5.013h0z" fill="#00D8FF"/></g><defs><clipPath id="A"><path fill="currentColor" d="M0 0h56.349v50H0z"/></clipPath></defs></svg>
